;FLAVOR:Marlin
;TIME:3157
;Filament used: 8.44647m
;Layer height: 0.3
;MINX:82.785
;MINY:41.572
;MINZ:0.2
;MAXX:167.215
;MAXY:168.428
;MAXZ:44.9
;TARGET_MACHINE.NAME:Prusa i3 Mk3/Mk3s
;Generated with Cura_SteamEngine 5.9.0
M82 ;absolute extrusion mode
G21 ; set units to millimeters
G90 ; use absolute positioning
M82 ; absolute extrusion mode
M104 S200 ; set extruder temp
M140 S60 ; set bed temp
M190 S60 ; wait for bed temp
M109 S200 ; wait for extruder temp
G28 W ; home all without mesh bed level
G80 ; mesh bed leveling
G92 E0.0 ; reset extruder distance position
G1 Y-3.0 F1000.0 ; go outside print area
G1 X60.0 E9.0 F1000.0 ; intro line
G1 X100.0 E21.5 F1000.0 ; intro line
G92 E0.0 ; reset extruder distance position
G92 E0
G92 E0
G1 F2100 E-0.8
;LAYER_COUNT:150
;LAYER:0
M107
G0 F3600 X92.846 Y98.325 Z0.2
;TYPE:SKIRT
G1 F2100 E0
G1 F6000 X92.806 Y95.527 E0.09307
G1 X92.691 Y92.811 E0.18349
G1 X92.496 Y90.064 E0.27508
G1 X92.228 Y87.359 E0.36549
G1 X91.88 Y84.635 E0.45683
G1 X91.455 Y81.935 E0.54774
G1 X90.952 Y79.226 E0.63938
G1 X90.38 Y76.57 E0.72974
G1 X89.732 Y73.923 E0.82038
G1 X89.005 Y71.283 E0.91146
G1 X88.195 Y68.636 E1.00353
G1 X87.32 Y66.041 E1.09461
G1 X86.377 Y63.486 E1.18519
G1 X85.358 Y60.947 E1.27619
G1 X84.264 Y58.435 E1.36732
G1 X83.097 Y55.943 E1.45884
G1 X82.919 Y55.47 E1.47565
G1 X82.819 Y54.974 E1.49248
G1 X82.786 Y54.356 E1.51306
G1 X82.785 Y45.403 E1.81084
G1 X82.794 Y44.738 E1.83296
G1 X82.841 Y44.234 E1.8498
G1 X82.967 Y43.745 E1.86659
G1 X83.168 Y43.281 E1.88341
G1 X83.439 Y42.854 E1.90023
G1 X83.774 Y42.476 E1.91703
G1 X84.165 Y42.155 E1.93386
G1 X84.602 Y41.9 E1.95068
G1 X85.073 Y41.716 E1.9675
G1 X85.567 Y41.61 E1.98431
G1 X86.012 Y41.573 E1.99916
G1 X163.354 Y41.572 E4.57156
G1 X164.052 Y41.582 E4.59478
G1 X164.555 Y41.629 E4.61159
G1 X165.045 Y41.755 E4.62841
G1 X165.509 Y41.957 E4.64524
G1 X165.935 Y42.229 E4.66206
G1 X166.313 Y42.564 E4.67885
G1 X166.633 Y42.955 E4.69566
G1 X166.888 Y43.392 E4.71249
G1 X167.071 Y43.863 E4.72929
G1 X167.178 Y44.357 E4.74611
G1 X167.214 Y45.012 E4.76792
G1 X167.215 Y164.532 E8.74317
G1 X167.206 Y165.259 E8.76736
G1 X167.16 Y165.762 E8.78416
G1 X167.035 Y166.252 E8.80098
G1 X166.834 Y166.716 E8.81779
G1 X166.563 Y167.143 E8.83462
G1 X166.228 Y167.522 E8.85144
G1 X165.838 Y167.843 E8.86824
G1 X165.402 Y168.099 E8.88506
G1 X164.931 Y168.282 E8.90186
G1 X164.437 Y168.39 E8.91868
G1 X163.775 Y168.427 E8.94073
G1 X86.651 Y168.428 E11.50589
G1 X85.953 Y168.419 E11.52911
G1 X85.449 Y168.372 E11.54594
G1 X84.959 Y168.247 E11.56276
G1 X84.495 Y168.046 E11.57958
G1 X84.069 Y167.775 E11.59637
G1 X83.69 Y167.44 E11.6132
G1 X83.369 Y167.049 E11.63002
G1 X83.114 Y166.613 E11.64682
G1 X82.93 Y166.142 E11.66364
G1 X82.823 Y165.648 E11.68045
G1 X82.786 Y165.195 E11.69557
G1 X82.785 Y155.422 E12.02062
G1 X82.796 Y154.715 E12.04414
G1 X82.844 Y154.212 E12.06094
G1 X82.997 Y153.623 E12.08118
G1 X83.686 Y152.155 E12.13512
G1 X84.812 Y149.663 E12.22607
G1 X85.878 Y147.11 E12.31809
G1 X86.858 Y144.567 E12.40873
G1 X87.763 Y142.007 E12.49904
G1 X88.604 Y139.393 E12.59038
G1 X89.366 Y136.772 E12.68116
G1 X90.066 Y134.085 E12.77351
G1 X90.672 Y131.45 E12.86344
G1 X91.214 Y128.749 E12.95507
G1 X91.674 Y126.062 E13.04574
G1 X92.063 Y123.332 E13.13745
G1 X92.371 Y120.632 E13.22784
G1 X92.601 Y117.923 E13.31827
G1 X92.757 Y115.176 E13.40978
G1 X92.836 Y112.411 E13.50178
G1 X92.846 Y111.03 E13.54771
G1 X92.846 Y98.325 E13.97028
G1 F2100 E13.17028
;MESH:final2.stl
G0 F3600 X95.381 Y98.325
G0 X96.476 Y98.325
G0 X96.956 Y155.035
G0 X96.58 Y155.035
;TYPE:WALL-INNER
G1 F2100 E13.97028
G1 F6000 X96.501 Y155.154 E13.97503
G1 X96.307 Y155.304 E13.98319
G1 X96.124 Y155.364 E13.9896
G1 X86.584 Y155.364 E14.3069
G1 X86.584 Y164.628 E14.61502
G1 X163.412 Y164.628 E17.17033
G1 X163.412 Y45.372 E21.1368
G1 X86.584 Y45.372 E23.69211
G1 X86.584 Y53.988 E23.97868
G1 X96.118 Y53.988 E24.29578
G1 X96.327 Y54.058 E24.30311
G1 X96.567 Y54.292 E24.31426
G1 X96.642 Y54.535 E24.32272
G1 X96.643 Y154.812 E27.65795
G1 X96.58 Y155.035 E27.66565
G0 F3600 X96.242 Y154.798
;TYPE:WALL-OUTER
G1 F6000 X96.157 Y154.93 E27.67087
G1 X96.075 Y154.962 E27.6738
G1 X86.184 Y154.964 E28.00278
G1 X86.184 Y165.028 E28.33751
G1 X163.812 Y165.028 E30.91943
G1 X163.812 Y44.972 E34.9125
G1 X86.184 Y44.972 E37.49442
G1 X86.184 Y54.388 E37.8076
G1 X96.079 Y54.39 E38.13671
G1 X96.187 Y54.447 E38.14077
G1 X96.244 Y54.57 E38.14528
G1 X96.242 Y154.798 E41.47888
G0 F3600 X96.157 Y154.93
G0 X96.117 Y154.945
G0 X96.784 Y155.408
;TYPE:SKIN
G1 F6000 X96.919 Y155.203 E41.48704
G1 X97.018 Y154.859 E41.49895
G1 X97.02 Y54.502 E44.83683
G1 X96.897 Y54.098 E44.85088
G1 X96.737 Y53.893 E44.85953
G1 X96.506 Y53.723 E44.86907
G1 X96.179 Y53.61 E44.88058
G1 X86.964 Y53.608 E45.18707
G1 X86.964 Y45.752 E45.44836
G1 X163.032 Y45.752 E47.97839
G1 X163.032 Y164.248 E51.91958
G1 X86.964 Y164.248 E54.44962
G1 X86.964 Y155.744 E54.73246
G1 X96.177 Y155.742 E55.03889
G1 X96.479 Y155.641 E55.04948
G1 X96.784 Y155.408 E55.06224
G0 F3600 X96.956 Y155.408
G0 X87.164 Y163.531
G1 F6000 X87.681 Y164.048 E55.08656
G0 F3600 X88.246 Y164.048
G1 F6000 X87.164 Y162.965 E55.13748
G0 F3600 X87.164 Y162.4
G1 F6000 X88.812 Y164.048 E55.215
G0 F3600 X89.378 Y164.048
G1 F6000 X87.164 Y161.834 E55.31914
G0 F3600 X87.164 Y161.268
G1 F6000 X89.943 Y164.048 E55.44987
G0 F3600 X90.509 Y164.048
G1 F6000 X87.164 Y160.703 E55.60721
G0 F3600 X87.164 Y160.137
G1 F6000 X91.075 Y164.048 E55.79117
G0 F3600 X91.64 Y164.048
G1 F6000 X87.164 Y159.571 E56.00174
G0 F3600 X87.164 Y159.006
G1 F6000 X92.206 Y164.048 E56.2389
G0 F3600 X92.772 Y164.048
G1 F6000 X87.164 Y158.44 E56.50268
G0 F3600 X87.164 Y157.874
G1 F6000 X93.337 Y164.048 E56.79306
G0 F3600 X93.903 Y164.048
G1 F6000 X87.164 Y157.309 E57.11004
G0 F3600 X87.164 Y156.743
G1 F6000 X94.469 Y164.048 E57.45365
G0 F3600 X95.034 Y164.048
G1 F6000 X87.164 Y156.177 E57.82385
G0 F3600 X87.496 Y155.944
G1 F6000 X95.6 Y164.048 E58.20504
G0 F3600 X96.166 Y164.048
G1 F6000 X88.062 Y155.944 E58.58623
G0 F3600 X88.627 Y155.943
G1 F6000 X96.732 Y164.048 E58.96746
G0 F3600 X97.297 Y164.048
G1 F6000 X89.192 Y155.943 E59.3487
G0 F3600 X89.757 Y155.943
G1 F6000 X97.863 Y164.048 E59.72995
G0 F3600 X98.429 Y164.048
G1 F6000 X90.323 Y155.943 E60.11121
G0 F3600 X90.889 Y155.943
G1 F6000 X98.994 Y164.048 E60.49245
G0 F3600 X99.56 Y164.048
G1 F6000 X91.454 Y155.942 E60.87373
G0 F3600 X92.019 Y155.942
G1 F6000 X100.126 Y164.048 E61.25503
G0 F3600 X100.691 Y164.048
G1 F6000 X92.584 Y155.941 E61.63636
G0 F3600 X93.15 Y155.941
G1 F6000 X101.257 Y164.048 E62.01769
G0 F3600 X101.823 Y164.048
G1 F6000 X93.715 Y155.94 E62.39906
G0 F3600 X94.281 Y155.94
G1 F6000 X102.388 Y164.048 E62.78042
G0 F3600 X102.954 Y164.048
G1 F6000 X94.846 Y155.94 E63.16179
G0 F3600 X95.411 Y155.94
G1 F6000 X103.52 Y164.048 E63.54319
G0 F3600 X104.085 Y164.048
G1 F6000 X95.977 Y155.94 E63.92457
G0 F3600 X96.459 Y155.856
G1 F6000 X104.651 Y164.048 E64.30989
G0 F3600 X105.217 Y164.048
G1 F6000 X96.807 Y155.638 E64.70547
G0 F3600 X97.066 Y155.332
G1 F6000 X105.782 Y164.048 E65.11545
G0 F3600 X106.348 Y164.048
G1 F6000 X97.21 Y154.91 E65.54527
G0 F3600 X97.214 Y154.349
G1 F6000 X106.914 Y164.048 E66.00151
G0 F3600 X107.48 Y164.048
G1 F6000 X97.214 Y153.783 E66.48436
G0 F3600 X97.214 Y153.217
G1 F6000 X108.045 Y164.048 E66.99382
G0 F3600 X108.611 Y164.048
G1 F6000 X97.214 Y152.652 E67.52988
G0 F3600 X97.214 Y152.086
G1 F6000 X109.177 Y164.048 E68.09256
G0 F3600 X109.742 Y164.048
G1 F6000 X97.214 Y151.52 E68.68183
G0 F3600 X97.214 Y150.955
G1 F6000 X110.308 Y164.048 E69.29771
G0 F3600 X110.874 Y164.048
G1 F6000 X97.214 Y150.389 E69.94021
G0 F3600 X97.214 Y149.823
G1 F6000 X111.439 Y164.048 E70.60931
G0 F3600 X112.005 Y164.048
G1 F6000 X97.214 Y149.258 E71.30501
G0 F3600 X97.214 Y148.692
G1 F6000 X112.571 Y164.048 E72.02734
G0 F3600 X113.136 Y164.048
G1 F6000 X97.214 Y148.126 E72.77626
G0 F3600 X97.214 Y147.56
G1 F6000 X113.702 Y164.048 E73.5518
G0 F3600 X114.268 Y164.048
G1 F6000 X97.214 Y146.995 E74.35395
G0 F3600 X97.214 Y146.429
G1 F6000 X114.833 Y164.048 E75.18269
G0 F3600 X115.399 Y164.048
G1 F6000 X97.214 Y145.863 E76.03806
G0 F3600 X97.214 Y145.298
G1 F6000 X115.965 Y164.048 E76.92002
G0 F3600 X116.53 Y164.048
G1 F6000 X97.214 Y144.732 E77.82859
G0 F3600 X97.214 Y144.166
G1 F6000 X117.096 Y164.048 E78.76378
G0 F3600 X117.662 Y164.048
G1 F6000 X97.214 Y143.601 E79.72557
G0 F3600 X97.214 Y143.035
G1 F6000 X118.228 Y164.048 E80.71398
G0 F3600 X118.793 Y164.048
G1 F6000 X97.214 Y142.469 E81.72899
G0 F3600 X97.214 Y141.904
G1 F6000 X119.359 Y164.048 E82.7706
G0 F3600 X119.925 Y164.048
G1 F6000 X97.214 Y141.338 E83.83883
G0 F3600 X97.214 Y140.772
G1 F6000 X120.49 Y164.048 E84.93366
G0 F3600 X121.056 Y164.048
G1 F6000 X97.214 Y140.207 E86.05509
G0 F3600 X97.214 Y139.641
G1 F6000 X121.622 Y164.048 E87.20314
G0 F3600 X122.187 Y164.048
G1 F6000 X97.214 Y139.075 E88.3778
G0 F3600 X97.214 Y138.509
G1 F6000 X122.753 Y164.048 E89.57907
G0 F3600 X123.319 Y164.048
G1 F6000 X97.214 Y137.944 E90.80695
G0 F3600 X97.214 Y137.378
G1 F6000 X123.884 Y164.048 E92.06142
G0 F3600 X124.45 Y164.048
G1 F6000 X97.214 Y136.812 E93.34252
G0 F3600 X97.214 Y136.247
G1 F6000 X125.016 Y164.048 E94.65022
G0 F3600 X125.581 Y164.048
G1 F6000 X97.214 Y135.681 E95.98452
G0 F3600 X97.214 Y135.115
G1 F6000 X126.147 Y164.048 E97.34544
G0 F3600 X126.713 Y164.048
G1 F6000 X97.214 Y134.55 E98.73296
G0 F3600 X97.214 Y133.984
G1 F6000 X127.279 Y164.048 E100.1471
G0 F3600 X127.844 Y164.048
G1 F6000 X97.214 Y133.418 E101.58784
G0 F3600 X97.214 Y132.853
G1 F6000 X128.41 Y164.048 E103.05518
G0 F3600 X128.976 Y164.048
G1 F6000 X97.214 Y132.287 E104.54914
G0 F3600 X97.214 Y131.721
G1 F6000 X129.541 Y164.048 E106.06971
G0 F3600 X130.107 Y164.048
G1 F6000 X97.214 Y131.156 E107.61687
G0 F3600 X97.214 Y130.59
G1 F6000 X130.673 Y164.048 E109.19065
G0 F3600 X131.238 Y164.048
G1 F6000 X97.214 Y130.024 E110.79104
G0 F3600 X97.214 Y129.459
G1 F6000 X131.804 Y164.048 E112.41802
G0 F3600 X132.37 Y164.048
G1 F6000 X97.214 Y128.893 E114.07163
G0 F3600 X97.214 Y128.327
G1 F6000 X132.935 Y164.048 E115.75184
G0 F3600 X133.501 Y164.048
G1 F6000 X97.214 Y127.761 E117.45866
G0 F3600 X97.214 Y127.196
G1 F6000 X134.067 Y164.048 E119.19209
G0 F3600 X134.632 Y164.048
G1 F6000 X97.214 Y126.63 E120.95212
G0 F3600 X97.214 Y126.064
G1 F6000 X135.198 Y164.048 E122.73877
G0 F3600 X135.764 Y164.048
G1 F6000 X97.214 Y125.499 E124.55202
G0 F3600 X97.214 Y124.933
G1 F6000 X136.329 Y164.048 E126.39187
G0 F3600 X136.895 Y164.048
G1 F6000 X97.214 Y124.367 E128.25834
G0 F3600 X97.214 Y123.802
G1 F6000 X137.461 Y164.048 E130.15142
G0 F3600 X138.027 Y164.048
G1 F6000 X97.214 Y123.236 E132.07111
G0 F3600 X97.214 Y122.67
G1 F6000 X138.592 Y164.048 E134.01741
G0 F3600 X139.158 Y164.048
G1 F6000 X97.214 Y122.105 E135.9903
G0 F3600 X97.214 Y121.539
G1 F6000 X139.724 Y164.048 E137.98982
G0 F3600 X140.289 Y164.048
G1 F6000 X97.214 Y120.973 E140.01593
G0 F3600 X97.214 Y120.408
G1 F6000 X140.855 Y164.048 E142.06865
G0 F3600 X141.421 Y164.048
G1 F6000 X97.214 Y119.842 E144.14799
G0 F3600 X97.214 Y119.276
G1 F6000 X141.986 Y164.048 E146.25392
G0 F3600 X142.552 Y164.048
G1 F6000 X97.214 Y118.711 E148.38646
G0 F3600 X97.214 Y118.145
G1 F6000 X143.118 Y164.048 E150.54562
G0 F3600 X143.683 Y164.048
G1 F6000 X97.214 Y117.579 E152.73138
G0 F3600 X97.214 Y117.013
G1 F6000 X144.249 Y164.048 E154.94376
G0 F3600 X144.815 Y164.048
G1 F6000 X97.214 Y116.448 E157.18274
G0 F3600 X97.214 Y115.882
G1 F6000 X145.38 Y164.048 E159.44832
G0 F3600 X145.946 Y164.048
G1 F6000 X97.214 Y115.316 E161.74053
G0 F3600 X97.214 Y114.751
G1 F6000 X146.512 Y164.048 E164.05933
G0 F3600 X147.078 Y164.048
G1 F6000 X97.214 Y114.185 E166.40476
G0 F3600 X97.214 Y113.619
G1 F6000 X147.643 Y164.048 E168.77678
G0 F3600 X148.209 Y164.048
G1 F6000 X97.214 Y113.054 E171.17541
G0 F3600 X97.214 Y112.488
G1 F6000 X148.775 Y164.048 E173.60066
G0 F3600 X149.34 Y164.048
G1 F6000 X97.214 Y111.922 E176.0525
G0 F3600 X97.214 Y111.357
G1 F6000 X149.906 Y164.048 E178.53095
G0 F3600 X150.472 Y164.048
G1 F6000 X97.214 Y110.791 E181.03602
G0 F3600 X97.214 Y110.225
G1 F6000 X151.037 Y164.048 E183.56769
G0 F3600 X151.603 Y164.048
G1 F6000 X97.214 Y109.66 E186.12596
G0 F3600 X97.214 Y109.094
G1 F6000 X152.169 Y164.048 E188.71085
G0 F3600 X152.734 Y164.048
G1 F6000 X97.214 Y108.528 E191.32234
G0 F3600 X97.214 Y107.962
G1 F6000 X153.3 Y164.048 E193.96045
G0 F3600 X153.866 Y164.048
G1 F6000 X97.214 Y107.397 E196.62516
G0 F3600 X97.214 Y106.831
G1 F6000 X154.431 Y164.048 E199.31648
G0 F3600 X154.997 Y164.048
G1 F6000 X97.214 Y106.265 E202.03441
G0 F3600 X97.214 Y105.7
G1 F6000 X155.563 Y164.048 E204.77895
G0 F3600 X156.128 Y164.048
G1 F6000 X97.214 Y105.134 E207.55008
G0 F3600 X97.214 Y104.568
G1 F6000 X156.694 Y164.048 E210.34784
G0 F3600 X157.26 Y164.048
G1 F6000 X97.214 Y104.003 E213.17219
G0 F3600 X97.214 Y103.437
G1 F6000 X157.826 Y164.048 E216.02317
G0 F3600 X158.391 Y164.048
G1 F6000 X97.214 Y102.871 E218.90075
G0 F3600 X97.214 Y102.306
G1 F6000 X158.957 Y164.048 E221.80493
G0 F3600 X159.523 Y164.048
G1 F6000 X97.214 Y101.74 E224.73573
G0 F3600 X97.214 Y101.174
G1 F6000 X160.088 Y164.048 E227.69313
G0 F3600 X160.654 Y164.048
G1 F6000 X97.214 Y100.609 E230.67713
G0 F3600 X97.214 Y100.043
G1 F6000 X161.22 Y164.048 E233.68775
G0 F3600 X161.785 Y164.048
G1 F6000 X97.214 Y99.477 E236.72497
G0 F3600 X97.214 Y98.912
G1 F6000 X162.351 Y164.048 E239.78879
G0 F3600 X162.833 Y163.964
G1 F6000 X97.214 Y98.346 E242.87529
G0 F3600 X97.214 Y97.78
G1 F6000 X162.833 Y163.398 E245.96178
G0 F3600 X162.833 Y162.833
G1 F6000 X97.214 Y97.214 E249.0483
G0 F3600 X97.214 Y96.649
G1 F6000 X162.833 Y162.267 E252.13479
G0 F3600 X162.833 Y161.701
G1 F6000 X97.214 Y96.083 E255.22128
G0 F3600 X97.214 Y95.517
G1 F6000 X162.833 Y161.135 E258.30778
G0 F3600 X162.833 Y160.57
G1 F6000 X97.214 Y94.952 E261.39427
G0 F3600 X97.214 Y94.386
G1 F6000 X162.833 Y160.004 E264.48076
G0 F3600 X162.833 Y159.438
G1 F6000 X97.214 Y93.82 E267.56726
G0 F3600 X97.214 Y93.255
G1 F6000 X162.833 Y158.873 E270.65375
G0 F3600 X162.833 Y158.307
G1 F6000 X97.214 Y92.689 E273.74024
G0 F3600 X97.214 Y92.123
G1 F6000 X162.833 Y157.741 E276.82674
G0 F3600 X162.833 Y157.176
G1 F6000 X97.214 Y91.558 E279.91323
G0 F3600 X97.214 Y90.992
G1 F6000 X162.833 Y156.61 E282.99972
G0 F3600 X162.833 Y156.044
G1 F6000 X97.214 Y90.426 E286.08621
G0 F3600 X97.214 Y89.861
G1 F6000 X162.833 Y155.479 E289.17271
G0 F3600 X162.833 Y154.913
G1 F6000 X97.214 Y89.295 E292.2592
G0 F3600 X97.214 Y88.729
G1 F6000 X162.833 Y154.347 E295.34569
G0 F3600 X162.833 Y153.782
G1 F6000 X97.214 Y88.163 E298.43221
G0 F3600 X97.214 Y87.598
G1 F6000 X162.833 Y153.216 E301.5187
G0 F3600 X162.833 Y152.65
G1 F6000 X97.214 Y87.032 E304.6052
G0 F3600 X97.214 Y86.466
G1 F6000 X162.833 Y152.085 E307.69171
G0 F3600 X162.833 Y151.519
G1 F6000 X97.214 Y85.901 E310.77821
G0 F3600 X97.214 Y85.335
G1 F6000 X162.833 Y150.953 E313.8647
G0 F3600 X162.833 Y150.387
G1 F6000 X97.214 Y84.769 E316.95119
G0 F3600 X97.214 Y84.204
G1 F6000 X162.833 Y149.822 E320.03768
G0 F3600 X162.833 Y149.256
G1 F6000 X97.214 Y83.638 E323.12418
G0 F3600 X97.214 Y83.072
G1 F6000 X162.833 Y148.69 E326.21067
G0 F3600 X162.833 Y148.125
G1 F6000 X97.214 Y82.507 E329.29716
G0 F3600 X97.214 Y81.941
G1 F6000 X162.833 Y147.559 E332.38366
G0 F3600 X162.833 Y146.993
G1 F6000 X97.214 Y81.375 E335.47015
G0 F3600 X97.214 Y80.81
G1 F6000 X162.833 Y146.428 E338.55664
G0 F3600 X162.833 Y145.862
G1 F6000 X97.214 Y80.244 E341.64314
G0 F3600 X97.214 Y79.678
