;FLAVOR:Marlin
;TIME:5211
;Filament used: 13.3755m
;Layer height: 0.3
;MINX:71.717
;MINY:25.306
;MINZ:0.2
;MAXX:178.283
;MAXY:184.669
;MAXZ:10.1
;TARGET_MACHINE.NAME:Prusa i3 Mk3/Mk3s
;Generated with Cura_SteamEngine 5.9.0
M82 ;absolute extrusion mode
G21 ; set units to millimeters
G90 ; use absolute positioning
M82 ; absolute extrusion mode
M104 S200 ; set extruder temp
M140 S60 ; set bed temp
M190 S60 ; wait for bed temp
M109 S200 ; wait for extruder temp
G28 W ; home all without mesh bed level
G80 ; mesh bed leveling
G92 E0.0 ; reset extruder distance position
G1 Y-3.0 F1000.0 ; go outside print area
G1 X60.0 E9.0 F1000.0 ; intro line
G1 X100.0 E21.5 F1000.0 ; intro line
G92 E0.0 ; reset extruder distance position
G92 E0
G92 E0
G1 F2100 E-0.8
;LAYER_COUNT:34
;LAYER:0
M107
G0 F3600 X109.622 Y28.357 Z0.2
;TYPE:SKIRT
G1 F2100 E0
G1 F6000 X112.262 Y27.63 E0.09108
G1 X114.897 Y26.823 E0.18273
G1 X117.609 Y25.907 E0.27794
G1 X118.317 Y25.657 E0.30291
G1 X119.03 Y25.49 E0.32727
G1 X119.537 Y25.386 E0.34448
G1 X120.232 Y25.306 E0.36775
G1 X121.209 Y25.32 E0.40025
G1 X121.884 Y25.387 E0.42281
G1 X123.011 Y25.651 E0.46131
G1 X126.186 Y26.738 E0.57293
G1 X128.799 Y27.547 E0.66391
G1 X131.421 Y28.277 E0.75443
G1 X134.141 Y28.951 E0.84764
G1 X136.764 Y29.524 E0.93694
G1 X139.436 Y30.028 E1.02737
G1 X142.17 Y30.466 E1.11947
G1 X144.892 Y30.822 E1.21077
G1 X147.596 Y31.098 E1.30117
G1 X150.307 Y31.298 E1.39159
G1 X153.059 Y31.423 E1.48321
G1 X156.131 Y31.471 E1.5854
G1 X172.427 Y31.471 E2.12741
G1 X173.309 Y31.484 E2.15675
G1 X174.006 Y31.575 E2.18013
G1 X174.501 Y31.68 E2.19696
G1 X175.259 Y31.973 E2.22399
G1 X175.782 Y32.235 E2.24344
G1 X176.369 Y32.67 E2.26774
G1 X176.824 Y33.066 E2.2878
G1 X177.306 Y33.677 E2.31369
G1 X177.642 Y34.181 E2.33383
G1 X177.939 Y34.877 E2.359
G1 X178.129 Y35.444 E2.37889
G1 X178.281 Y36.512 E2.41477
G1 X178.283 Y171.956 E6.91966
G1 X178.272 Y172.721 E6.9451
G1 X178.176 Y173.562 E6.97326
G1 X177.982 Y174.285 E6.99816
G1 X177.785 Y174.778 E7.01581
G1 X177.56 Y175.232 E7.03267
G1 X177.08 Y175.903 E7.06011
G1 X176.687 Y176.35 E7.0799
G1 X176.079 Y176.833 E7.10573
G1 X175.572 Y177.174 E7.12605
G1 X174.877 Y177.469 E7.15116
G1 X174.313 Y177.657 E7.17094
G1 X173.249 Y177.811 E7.20669
G1 X157.971 Y177.812 E7.71484
G1 X155.174 Y177.852 E7.80788
G1 X152.457 Y177.967 E7.89833
G1 X149.71 Y178.162 E7.98993
G1 X147.006 Y178.43 E8.0803
G1 X144.282 Y178.778 E8.17164
G1 X141.582 Y179.203 E8.26255
G1 X138.892 Y179.703 E8.35355
G1 X136.245 Y180.27 E8.44359
G1 X133.521 Y180.94 E8.53689
G1 X130.93 Y181.653 E8.62627
G1 X128.283 Y182.463 E8.71834
G1 X125.693 Y183.337 E8.80925
G1 X124.468 Y183.79 E8.85269
G1 X122.663 Y184.421 E8.91629
G1 X121.911 Y184.585 E8.94189
G1 X120.997 Y184.668 E8.97241
G1 X120.443 Y184.669 E8.99084
G1 X119.44 Y184.581 E9.02433
G1 X118.708 Y184.431 E9.04918
G1 X117.645 Y184.063 E9.08659
G1 X115.154 Y183.159 E9.17473
G1 X112.565 Y182.302 E9.26544
G1 X109.936 Y181.513 E9.35673
G1 X107.297 Y180.802 E9.44764
G1 X104.619 Y180.16 E9.53923
G1 X101.931 Y179.597 E9.63057
G1 X99.266 Y179.117 E9.72064
G1 X96.539 Y178.704 E9.81237
G1 X93.842 Y178.374 E9.90274
G1 X91.099 Y178.117 E9.99438
G1 X88.391 Y177.94 E10.08464
G1 X85.635 Y177.838 E10.17636
G1 X83.394 Y177.812 E10.25091
G1 X77.573 Y177.812 E10.44451
G1 X76.805 Y177.801 E10.47006
G1 X75.949 Y177.701 E10.49872
G1 X75.244 Y177.51 E10.52302
G1 X74.752 Y177.314 E10.54063
G1 X74.298 Y177.09 E10.55747
G1 X73.622 Y176.606 E10.58512
G1 X73.176 Y176.214 E10.60487
G1 X72.701 Y175.616 E10.63027
G1 X72.362 Y175.112 E10.65047
G1 X72.062 Y174.412 E10.6758
G1 X71.87 Y173.84 E10.69587
G1 X71.719 Y172.779 E10.73152
G1 X71.717 Y37.327 E15.23667
G1 X71.727 Y36.625 E15.26002
G1 X71.817 Y35.766 E15.28875
G1 X71.94 Y35.187 E15.30843
G1 X72.206 Y34.521 E15.33229
G1 X72.471 Y33.986 E15.35214
G1 X72.925 Y33.376 E15.37744
G1 X73.322 Y32.921 E15.39752
G1 X73.922 Y32.449 E15.42291
G1 X74.422 Y32.115 E15.44291
G1 X75.122 Y31.816 E15.46823
G1 X75.694 Y31.624 E15.48829
G1 X76.756 Y31.473 E15.52397
G1 X85.22 Y31.471 E15.80549
G1 X88.017 Y31.431 E15.89852
G1 X90.734 Y31.316 E15.98897
G1 X93.48 Y31.121 E16.08054
G1 X96.186 Y30.853 E16.17098
G1 X98.909 Y30.505 E16.26228
G1 X101.61 Y30.08 E16.35322
G1 X104.318 Y29.577 E16.44483
G1 X106.975 Y29.005 E16.53523
G1 X109.622 Y28.357 E16.62587
G1 F2100 E15.82587
G0 F3600 X124.156 Y32.971
G1 F2100 E16.62587
G1 F6000 X117.192 Y32.971 E16.85749
G1 X117.214 Y32.457 E16.8746
G1 X117.415 Y31.72 E16.90001
G1 X117.767 Y31.042 E16.92542
G1 X118.254 Y30.463 E16.95058
G1 X118.862 Y29.995 E16.9761
G1 X119.549 Y29.672 E17.00135
G1 X120.29 Y29.51 E17.02658
G1 X121.062 Y29.511 E17.05226
G1 X121.8 Y29.672 E17.07738
G1 X122.487 Y29.995 E17.10263
G1 X123.094 Y30.463 E17.12812
G1 X123.583 Y31.045 E17.1534
G1 X123.941 Y31.728 E17.17905
G1 X124.134 Y32.451 E17.20394
G1 X124.156 Y32.971 E17.22125
G0 F3600 X124.569 Y33.243
G1 F6000 X124.564 Y33.27 E17.22217
G1 X124.468 Y33.371 E17.2268
G1 X116.889 Y33.371 E17.47888
G1 X116.781 Y33.243 E17.48445
G1 X116.816 Y32.397 E17.51261
G1 X117.04 Y31.575 E17.54095
G1 X117.433 Y30.817 E17.56935
G1 X117.976 Y30.171 E17.59741
G1 X118.649 Y29.653 E17.62566
G1 X119.42 Y29.291 E17.65399
G1 X120.247 Y29.11 E17.68215
G1 X121.106 Y29.111 E17.71072
G1 X121.929 Y29.291 E17.73874
G1 X122.7 Y29.653 E17.76707
G1 X123.372 Y30.171 E17.79529
G1 X123.919 Y30.822 E17.82357
G1 X124.314 Y31.576 E17.85188
G1 X124.532 Y32.394 E17.88004
G1 X124.569 Y33.243 E17.9083
G0 F3600 X124.78 Y33.603
G1 F6000 X124.731 Y33.694 E17.91174
G1 X124.683 Y33.71 E17.91342
G1 X124.637 Y33.757 E17.91561
G1 X124.627 Y33.771 E17.91618
G1 X116.718 Y33.771 E18.17924
G1 X116.698 Y33.746 E18.1803
G1 X116.623 Y33.71 E18.18307
G1 X116.543 Y33.571 E18.1884
G1 X116.45 Y33.488 E18.19255
G1 X116.416 Y33.481 E18.1937
G1 X116.379 Y33.269 E18.20086
G1 X116.419 Y32.332 E18.23205
G1 X116.665 Y31.429 E18.26318
G1 X117.098 Y30.594 E18.29447
G1 X117.7 Y29.88 E18.32553
G1 X118.439 Y29.309 E18.35659
G1 X119.292 Y28.909 E18.38792
G1 X120.203 Y28.71 E18.41894
G1 X121.15 Y28.711 E18.45044
G1 X122.057 Y28.909 E18.48131
G1 X122.91 Y29.309 E18.51265
G1 X123.649 Y29.879 E18.54369
G1 X124.252 Y30.598 E18.5749
G1 X124.691 Y31.434 E18.60631
G1 X124.929 Y32.328 E18.63708
G1 X124.97 Y33.272 E18.6685
G1 X124.93 Y33.498 E18.67614
G1 X124.921 Y33.5 E18.67644
G1 X124.78 Y33.603 E18.68225
G1 F2100 E17.88225
G0 F3600 X76.874 Y34.007
G0 X76.226 Y34.093
G0 X75.583 Y34.359
G0 X75.028 Y34.783
G0 X74.604 Y35.337
G0 X74.338 Y35.981
G0 X74.253 Y36.623
G0 X74.253 Y172.655
G0 X74.338 Y173.303
G0 X74.604 Y173.946
G0 X75.028 Y174.501
G0 X75.583 Y174.924
G0 X76.161 Y175.164
G0 X121.408 Y180.413
G1 F2100 E18.68225
G1 F6000 X120.669 Y180.489 E18.70696
G1 X119.94 Y180.413 E18.73134
G1 X119.242 Y180.182 E18.75579
G1 X118.603 Y179.81 E18.78039
G1 X118.059 Y179.317 E18.8048
G1 X117.634 Y178.725 E18.82904
G1 X117.337 Y178.048 E18.85363
G1 X117.192 Y177.323 E18.87822
G1 X117.197 Y176.587 E18.9027
G1 X117.259 Y176.312 E18.91208
G1 X124.091 Y176.312 E19.13931
G1 X124.152 Y176.586 E19.14865
G1 X124.157 Y177.327 E19.17329
G1 X124.012 Y178.049 E19.19779
G1 X123.716 Y178.724 E19.2223
G1 X123.288 Y179.318 E19.24665
G1 X122.744 Y179.811 E19.27107
G1 X122.102 Y180.183 E19.29575
G1 X121.408 Y180.413 E19.32007
G0 F3600 X121.489 Y180.807
G1 F6000 X120.668 Y180.892 E19.34752
G1 X119.86 Y180.807 E19.37454
G1 X119.077 Y180.547 E19.40198
G1 X118.363 Y180.132 E19.42945
G1 X117.759 Y179.585 E19.45655
G1 X117.282 Y178.921 E19.48375
G1 X116.952 Y178.169 E19.51106
G1 X116.791 Y177.364 E19.53836
G1 X116.798 Y176.538 E19.56584
G1 X116.906 Y176.055 E19.5823
G1 X117.007 Y175.98 E19.58648
G1 X117.035 Y175.944 E19.588
G1 X117.094 Y175.928 E19.59003
G1 X117.121 Y175.912 E19.59108
G1 X124.231 Y175.912 E19.82756
G1 X124.258 Y175.928 E19.8286
G1 X124.319 Y175.945 E19.83071
G1 X124.351 Y175.985 E19.83241
G1 X124.446 Y176.068 E19.83661
G1 X124.551 Y176.544 E19.85282
G1 X124.558 Y177.365 E19.88013
G1 X124.395 Y178.174 E19.90758
G1 X124.069 Y178.917 E19.93456
G1 X123.585 Y179.589 E19.96211
G1 X122.983 Y180.135 E19.98914
G1 X122.268 Y180.549 E20.01662
G1 X121.489 Y180.807 E20.04391
G0 F3600 X121.574 Y181.2
G1 F6000 X120.668 Y181.294 E20.07421
G1 X119.775 Y181.2 E20.10407
G1 X118.912 Y180.915 E20.1343
G1 X118.123 Y180.456 E20.16466
G1 X117.461 Y179.856 E20.19438
G1 X116.933 Y179.12 E20.2245
G1 X116.569 Y178.29 E20.25465
G1 X116.391 Y177.402 E20.28477
G1 X116.398 Y176.493 E20.315
G1 X116.553 Y175.802 E20.33856
G1 X116.691 Y175.735 E20.34366
G1 X116.786 Y175.612 E20.34883
G1 X116.889 Y175.584 E20.35238
G1 X117.01 Y175.512 E20.35706
G1 X124.342 Y175.512 E20.60093
G1 X124.463 Y175.584 E20.60561
G1 X124.565 Y175.612 E20.60913
G1 X124.664 Y175.736 E20.6144
G1 X124.797 Y175.8 E20.61931
G1 X124.951 Y176.496 E20.64302
G1 X124.958 Y177.403 E20.67319
G1 X124.778 Y178.295 E20.70346
G1 X124.417 Y179.119 E20.73338
G1 X123.885 Y179.858 E20.76366
G1 X123.222 Y180.458 E20.7934
G1 X122.432 Y180.916 E20.82378
G1 X121.574 Y181.2 E20.85384
G1 F2100 E20.05384
G0 F3600 X121.322 Y180.015
;TYPE:SUPPORT
G1 F2100 E20.85384
G1 F6000 X120.663 Y180.083 E20.87587
G1 X120.027 Y180.019 E20.89713
G1 X119.407 Y179.812 E20.91887
G1 X118.832 Y179.477 E20.941
G1 X118.366 Y179.053 E20.96196
G1 X117.975 Y178.516 E20.98405
G1 X117.721 Y177.928 E21.00536
G1 X117.592 Y177.284 E21.0272
G1 X117.595 Y176.712 E21.04623
G1 X123.75 Y176.712 E21.25094
G1 X123.756 Y177.289 E21.27013
G1 X123.628 Y177.927 E21.29178
G1 X123.369 Y178.516 E21.31318
G1 X122.982 Y179.053 E21.33519
G1 X122.513 Y179.477 E21.35622
G1 X121.937 Y179.816 E21.37845
G1 X121.322 Y180.015 E21.39995
G1 F2100 E20.59995
G0 F3600 X120.015 Y179.845
G1 F2100 E21.39995
G1 F6000 X120.015 Y176.872 E21.49883
G1 F2100 E20.69883
G0 F3600 X118.299 Y178.689
G1 F2100 E21.49883
G1 F6000 X123.046 Y178.689 E21.65672
G0 F3600 X122.682 Y179.109
G1 F6000 X122.682 Y176.872 E21.73112
G1 F2100 E20.93112
G0 F3600 X76.869 Y175.276
G0 X76.225 Y175.191
G0 X75.583 Y174.924
G0 X75.028 Y174.501
G0 X74.604 Y173.946
G0 X74.338 Y173.303
G0 X74.253 Y172.655
G0 X74.253 Y36.623
G0 X74.338 Y35.981
G0 X74.604 Y35.337
G0 X75.028 Y34.783
G0 X75.583 Y34.359
G0 X76.226 Y34.093
G0 X76.594 Y34.045
G0 X122.682 Y32.568
G1 F2100 E21.73112
G1 F6000 X117.598 Y32.568 E21.90022
G1 X117.788 Y31.866 E21.92441
G1 X118.1 Y31.264 E21.94696
G1 X118.527 Y30.754 E21.96908
G1 X119.069 Y30.34 E21.99176
G1 X119.681 Y30.051 E22.01428
G1 X120.33 Y29.908 E22.03638
G1 X121.018 Y29.908 E22.05926
G1 X121.666 Y30.051 E22.08133
G1 X122.279 Y30.34 E22.10387
G1 X122.816 Y30.754 E22.12643
G1 X123.244 Y31.264 E22.14857
G1 X123.564 Y31.874 E22.17148
G1 X123.749 Y32.568 E22.19537
G1 X122.682 Y32.568 E22.23086
G1 X122.682 Y32.408
G1 X122.682 Y30.853 E22.28258
G1 F2100 E21.48258
G0 F3600 X123.433 Y32.004
G1 F2100 E22.28258
G1 F6000 X117.917 Y32.004 E22.46604
G1 F2100 E21.66604
G0 F3600 X120.015 Y32.408
G1 F2100 E22.46604
G1 F6000 X120.015 Y30.141 E22.54144
G1 F2100 E21.74144
;MESH:final 3.stl
G0 F3600 X120.015 Y34.006
G0 X120.015 Y35.101
G0 X138.972 Y60.718
G0 X139.3 Y60.969
G0 X140.86 Y61.688
G0 X140.82 Y61.379
;TYPE:WALL-INNER
G1 F2100 E22.54144
G1 F6000 X140.3 Y61.434 E22.55883
G1 X139.733 Y61.338 E22.57796
G1 X139.294 Y61.149 E22.59386
G1 X138.867 Y60.821 E22.61177
G1 X138.498 Y60.32 E22.63246
G1 X138.318 Y59.872 E22.64852
G1 X138.252 Y59.326 E22.66681
G1 X138.314 Y58.817 E22.68387
G1 X138.529 Y58.277 E22.7032
G1 X138.893 Y57.827 E22.72245
G1 X139.262 Y57.539 E22.73802
G1 X139.817 Y57.295 E22.75818
G1 X140.389 Y57.237 E22.7773
G1 X140.934 Y57.316 E22.79562
G1 X141.442 Y57.539 E22.81407
G1 X141.866 Y57.882 E22.83221
G1 X142.166 Y58.279 E22.84876
G1 X142.375 Y58.773 E22.8666
G1 X142.452 Y59.326 E22.88517
G1 X142.381 Y59.875 E22.90358
G1 X142.169 Y60.387 E22.92202
G1 X141.837 Y60.821 E22.94019
G1 X141.41 Y61.149 E22.9581
G1 X140.82 Y61.379 E22.97916
G0 F3600 X140.86 Y61.688
G0 X142.02 Y62.67
G0 X142.394 Y63.16
G0 X142.629 Y63.728
G0 X142.71 Y64.337
G0 X142.629 Y64.946
G0 X142.394 Y65.514
G0 X142.02 Y66.004
G0 X141.623 Y66.307
G0 X140.86 Y66.688
G0 X140.82 Y66.379
G1 F6000 X140.3 Y66.434 E22.99655
G1 X139.733 Y66.338 E23.01568
G1 X139.294 Y66.149 E23.03158
G1 X138.867 Y65.821 E23.04948
G1 X138.535 Y65.394 E23.06747
G1 X138.346 Y64.955 E23.08337
G1 X138.254 Y64.388 E23.10248
G1 X138.305 Y63.868 E23.11985
G1 X138.535 Y63.278 E23.14092
G1 X138.867 Y62.851 E23.15891
G1 X139.294 Y62.519 E23.1769
G1 X139.733 Y62.33 E23.19279
G1 X140.3 Y62.238 E23.2119
G1 X140.82 Y62.289 E23.22928
G1 X141.41 Y62.519 E23.25034
G1 X141.837 Y62.851 E23.26833
G1 X142.165 Y63.278 E23.28624
G1 X142.395 Y63.868 E23.3073
G1 X142.45 Y64.388 E23.32469
G1 X142.354 Y64.955 E23.34382
G1 X142.165 Y65.394 E23.35971
G1 X141.837 Y65.821 E23.37762
G1 X141.41 Y66.149 E23.39553
G1 X140.82 Y66.379 E23.41659
G0 F3600 X140.86 Y66.688
G0 X145.86 Y66.688
G0 X145.82 Y66.379
G1 F6000 X145.3 Y66.434 E23.43398
G1 X144.733 Y66.338 E23.45311
G1 X144.294 Y66.149 E23.46901
G1 X143.867 Y65.821 E23.48692
G1 X143.535 Y65.394 E23.50491
G1 X143.346 Y64.955 E23.5208
G1 X143.254 Y64.388 E23.53991
G1 X143.305 Y63.868 E23.55729
G1 X143.535 Y63.278 E23.57835
G1 X143.867 Y62.851 E23.59634
G1 X144.3 Y62.515 E23.61457
G1 X144.812 Y62.303 E23.633
G1 X145.362 Y62.236 E23.65143
G1 X145.873 Y62.298 E23.66855
G1 X146.405 Y62.511 E23.68761
G1 X146.838 Y62.852 E23.70594
G1 X147.181 Y63.307 E23.72489
G1 X147.385 Y63.814 E23.74307
G1 X147.452 Y64.326 E23.76024
G1 X147.381 Y64.875 E23.77865
G1 X147.169 Y65.387 E23.79708
G1 X146.837 Y65.821 E23.81526
G1 X146.41 Y66.149 E23.83317
G1 X145.82 Y66.379 E23.85423
G0 F3600 X145.86 Y66.688
G0 X147.02 Y67.67
G0 X147.394 Y68.16
G0 X147.629 Y68.728
G0 X147.71 Y69.337
G0 X147.629 Y69.946
G0 X147.394 Y70.514
G0 X147.02 Y71.004
G0 X146.623 Y71.307
G0 X145.86 Y71.688
G0 X145.82 Y71.379
G1 F6000 X145.3 Y71.434 E23.87162
G1 X144.733 Y71.338 E23.89075
G1 X144.294 Y71.149 E23.90664
G1 X143.867 Y70.821 E23.92455
G1 X143.535 Y70.394 E23.94254
G1 X143.346 Y69.955 E23.95844
G1 X143.254 Y69.388 E23.97754
G1 X143.305 Y68.868 E23.99492
G1 X143.535 Y68.278 E24.01598
G1 X143.867 Y67.851 E24.03397
G1 X144.294 Y67.519 E24.05196
G1 X144.733 Y67.33 E24.06786
G1 X145.3 Y67.238 E24.08697
G1 X145.82 Y67.289 E24.10434
G1 X146.41 Y67.519 E24.12541
G1 X146.837 Y67.851 E24.1434
G1 X147.165 Y68.278 E24.1613
G1 X147.395 Y68.868 E24.18237
G1 X147.45 Y69.388 E24.19976
G1 X147.354 Y69.955 E24.21889
G1 X147.165 Y70.394 E24.23478
G1 X146.837 Y70.821 E24.25269
G1 X146.41 Y71.149 E24.2706
G1 X145.82 Y71.379 E24.29166
G0 F3600 X145.86 Y71.688
G0 X147.02 Y72.67
G0 X147.394 Y73.16
G0 X147.629 Y73.728
G0 X147.71 Y74.337
G0 X147.629 Y74.946
G0 X147.394 Y75.514
G0 X147.02 Y76.004
G0 X146.623 Y76.307
G0 X145.86 Y76.688
G0 X145.82 Y76.379
G1 F6000 X145.3 Y76.434 E24.30905
G1 X144.733 Y76.338 E24.32818
G1 X144.294 Y76.149 E24.34408
G1 X143.867 Y75.821 E24.36198
G1 X143.535 Y75.394 E24.37997
G1 X143.346 Y74.955 E24.39587
G1 X143.254 Y74.388 E24.41498
G1 X143.305 Y73.868 E24.43235
G1 X143.535 Y73.278 E24.45342
G1 X143.867 Y72.851 E24.47141
G1 X144.294 Y72.519 E24.4894
G1 X144.733 Y72.33 E24.50529
G1 X145.3 Y72.238 E24.5244
G1 X145.82 Y72.289 E24.54178
G1 X146.41 Y72.519 E24.56284
G1 X146.837 Y72.851 E24.58083
G1 X147.165 Y73.278 E24.59874
G1 X147.395 Y73.868 E24.6198
G1 X147.45 Y74.388 E24.63719
G1 X147.354 Y74.955 E24.65632
G1 X147.165 Y75.394 E24.67221
G1 X146.837 Y75.821 E24.69012
G1 X146.41 Y76.149 E24.70803
G1 X145.82 Y76.379 E24.72909
G0 F3600 X145.86 Y76.688
G0 X147.02 Y77.67
G0 X147.394 Y78.16
G0 X147.629 Y78.728
G0 X147.71 Y79.337
